X:1
T:Cinq Poëmes de Baudelaire
T:Le Jet d'Eau
T:3. Le Jet d'Eau
T:Claude Debussy
T:Charles Baudelaire
T:Cinq Poëmes de Baudelaire
T:OpenScore (CC0)
T:OpenScore (CC0)
T:OpenScore (CC0)
T:OpenScore (CC0)
T:OpenScore (CC0)
T:OpenScore (CC0)
T:OpenScore (CC0)
T:OpenScore (CC0)
T:OpenScore (CC0)
T:OpenScore (CC0)
T:OpenScore (CC0)
T:OpenScore (CC0)
T:OpenScore (CC0)
C:Claude Debussy
Z:Charles Baudelaire
Z:OpenScore (CC0)
%%score 1 { ( 2 3 7 ) | ( 4 5 6 ) }
L:1/8
Q:1/4=68
M:9/8
K:C
V:1 treble nm="Chant\nVoice"
V:2 treble nm="Piano"
V:3 treble 
V:7 treble 
V:4 treble 
V:5 treble 
V:6 treble 
V:1
"_Andantino tranquillo""^Andantino tranquillo""^Andantino tranquillo" z6 | %1
w: |
!p!"^languide" (G G ^F2 D2 | E2-) E z (G e) | (c6 | G2) z2 z2 | (_B2!<(! A A _A F | %6
w: Tes beaux yeux sont|las, _ Pauvre a-|man-|te!|Res- te long- temps sans|
 E!<)!!>(! e e2)!>)! (3(d c ^G |!>(! B A E D E E)!>)! |!p! z (A E D D E | E C C2) z2 | z6 | %11
w: les rou- vrir, Dans  cet- te|po- se non- cha- lan- te|Où t'a sur- pri- se|le plai- sir.||
!p! (_B B (3:2:2B2 B (3c c c | _d2- d)!<(! (d =d d | _e!<)! _B!>(! B2 G2!>)! | ^F4) z2 | %15
w: Dans la cour le jet d'eau qui|ja- se Et ne se|tait ni nuit ni|jour|
!p! (^F ^G A2 B c | ^c c!>(! ^f2!>)! c2) |!p! (=c"^dim." B B2 A G | G F F4-) | %19
w: En- tre- tient dou- ce-|ment l'ex- ta- se|Où ce soir m'a plon-|gé l'a- mour.|
[Q:1/4=66] F2 z[Q:1/4=64] z2 z |[Q:1/4=62] z6 ||[M:3/4]!pp!"^Poco mosso"[Q:1/4=76] (G2 A2 B2 | %22
w: _||La ger- be|
 d4) (e2 | G2 G) (G A B | d4)!<(! (c G!<)! |!p! G2 F2 E2 | E2 D) (D F F | ^G6-) | G2 z2 z2 | %29
w: d'eau qui|ber- ce Ses mil- le|fleurs, Que la|lu- ne tra-|ver- se De ses pâ-|leurs,|_|
!pp! (c2 A A G G |!<(! c2 A2!<)! B2 |!>(! ^d2 ^c2!>)! d2 | e4)[Q:1/4=66] z2 | %33
w: Tom- be comme une a-|ver- se De|lar- * ges|pleurs.|
[Q:1/4=64] z2[Q:1/4=62] z2 z (C |!p!"^Meno mosso tempo rubato" _E E E E F G | A2 G)!<(! (G A _B | %36
w: Ain-|si ton â- me qu'in- cen-|di- e L'é- clair brû-|
 d2 _B2 G B!<)! | _B2-) B z z (B | =B2"^cresc." (3A) z (E (3G A B | B2 A2) (G A |!f! B d d2 B d | %41
w: lant des vo- lup-|tés _ S'é-|lan- ce, ra- pide et har-|di- e, Vers les|vas- tes cieux en- chan-|
"_a tempo (Andantino tranquillo)"[Q:1/4=68]"^a tempo (Andantino tranquillo)" ^d6) | %42
w: tés.|
 z2!p! (^f2 (3e B"^dim." ^G | =G2 (3^D) z (G (3:2:2B2 B) | z2"^dim." (A G (3(G^F) E | %45
w: Puis, el- le s'é-|pan- che, mou- ran- te,|En un flot * de|
!>(! (3_E _D E!>)! D4) | z!<(! (_E _F F =F F | _G G c2!<)! =B) (_A | _G2"^dim." _E E (3D =E F | %49
w: tris- te lan- gueur,|Qui par une in- vi-|si- ble pen- te Des-|cend jus- qu'au fond de mon|
"_rit."!>(! ^F6)!>)![Q:1/4=60] ||!pp!"^Poco mosso"[Q:1/4=76] (G2 A2 B2 | d4 e2 | G2 G) (G A B | %53
w: coeur.|La ger- be|d'eau qui|ber- ce Ses mil- le|
 d4) (c G | G2 F2 E2 | E2 D D F F | ^G6-) | ^G2 z2 z2 |!p! (c2 A A G G | c2 A2) (B2 | ^d2 ^c2 d2 | %61
w: fleurs, Que la|lu- ne tra-|ver- se De ses pâ-|leurs,|_|Tom- be comme une a-|ver- se De|lar- * ges|
 e6-) |"^Meno mosso tempo rubato"[Q:1/4=68] e2[Q:1/4=64] z2 z2 | z2!p!!<(! (G2!<)! B2) | %64
w: pleurs.|_|O toi,|
 z!p!!>(! (B B B e ^f!>)! |!pp! ^c2 B) z (G G | B2)!>(! (B B ^A A!>)! |!pp! =A2-) =A z!pp! (A A | %68
w: que la nuit rend si|bel- le, Qu'il m'est|doux, pen- ché vers tes|seins, _ D'é- cou-|
 ^c2!<(! c c e ^f!<)! |!>(! ^f2!>)! ^c2 A A | %70
w: ter la plainte é- ter-|nel- le Qui san-|
"_Rit.""^Rit."[Q:1/4=66] c2)[Q:1/4=64] !tenuto!A !tenuto!A[Q:1/4=63] !tenuto!A !tenuto!A || %71
w: glo- te dans les bas-|
[M:4/4][Q:1/4=62] c4- c2 z2 ||[M:3/4]"_Plus lent""^Plus lent"[Q:1/4=58] z6 | %73
w: sins! _||
 z2!p!"^espress." (3:2:2(^G2 ^D) (3z G B | ^d2- d z!<(! (d d!<)! |!pp! ^g2-) g z (^f =d | %76
w: Lu- ne, eau so-|no- re, nuit bé-|ni- e, Ar- bres|
 (3^c B c ^F F c2) | z!<(! (B A ^F E D!<)! |!>(! C C ^D2!>)! C2) | z (^C C C ^F F) | (^F A A4-) | %81
w: qui fris- son- nez au- tour,|Vo- tre pu- re mé-|lan- co- li- e|Est le mi- roir de|mon a- mour.|
 A2 z2 z2 ||!pp!"_Andantino tranquillo"[Q:1/4=68] (G2 A2 B2"^Andantino tranquillo" | d4 e2 | %84
w: _|La ger- be|d'eau qui|
 G2 G) (G A B | d4) (c G | G2 F2 E2 | E2 D D F F) | _A6- | _A4 z2 | %90
w: ber- ce Ses mil- le|fleurs, que la|lu- ne tra-|ver- se De ses pâ-|leurs|_|
"_rit. molto e morendo"[Q:1/4=64]"^rit. molto e morendo"!>(! (c2 =A A[Q:1/4=62] G G | %91
w: Tom- be comme une a-|
[Q:1/4=60] c2 A2)!>)!!ppp![Q:1/4=58] (B2 |[Q:1/4=56]!>(! ^d2 ^c2 d2!>)![Q:1/4=55] | %93
w: ver- se De|lar- * ges|
[Q:1/4=54] e6-)[Q:1/4=53] | e2 z2 z2 | z6 | z6 |] %97
w: pleurs.|_|||
V:2
!pp!"_très doux" ([CD]- [cd]2) (D [cd]2) (D [cd]2) x3 |!p! (D [cd]2) (D [cd]2) (D [cd]2) x6 | %2
 (D- [cd]2) (D- [cd]2) (D- [cd]2) x6 | (D- [cd]2) (D- [cd]2) (D- [cd]2) x6 | %4
 (D- [cd]2) (D- [cd]2) (D- [cd]2) x8 | (D- [cd]2) (D- [cd]2) (D- [cd]2) x6 | %6
 (D- [cd]2) (D- [cd]2) (D- [cd]2) x7 | (D- [cd]2) (D- [cd]2) (D- [cd]2) x9 | %8
 (D- [cd]2) (D- [cd]2) (D- [cd]2) x8 | (G [ce]2) (G [ce]2) (G [ce]2) x7 | %10
 (E [ce]2) (G [eg]2) (c- [cg]2) x6 |!p! ([FG][fg][FG] [fg][FG][fg] [FG][fg][FG]) x6 | %12
 ([fg][FG][fg] [FG][fg][FG] [fg][FG][fg]) x6 | ([FG][fg][FG] [fg][FG][fg] [FG][fg][FG] x5 | %14
!pp! [^f^g][^F^G][fg] [FG][fg][FG] [fg][FG][fg]) x9/2 | %15
 ([^F^G][^f^g][FG]!<(! [fg][FG][fg] [FG][fg][FG]!<)! x6 | %16
!>(! [^f^g][^F^G][fg] [FG][fg][FG] [fg]!>)![FG][fg]) x6 | %17
!pp! ([=FA] [=fa]2-) ([fa] [FA]2-) ([FA] [fa]2) x6 | %18
 ([FA] [fa]2-) ([fa] [FA]2-) ([FA] [F,B,]2) x6 | %19
!pp! (2:3:5z2/3 (B,11/45^D11/45B,11/45^G,11/45(2:3:2^E,-) E,!<(!(2:3:5(b11/45^d'11/45b11/45^g11/45!<)!^e) x4 | %20
!pp! (2:3:5z2/3 (B,11/45^D11/45B,11/45^G,11/45(2:3:2^E,-) E,(2:3:5(b11/45^d'11/45b11/45^g11/45^e) x119/30 || %21
[M:3/4]!ppp! (5:4:5(b/^d'/b/=g/f/) (5:4:5(B/^d/B/G/F/)[K:bass] (5:4:5(B,/^D/B,/G,/F,/) | %22
 (5:4:5(_B,/=D/B,/G,/E,/)[K:treble][I:staff +1] ([CD][I:staff -1][cd])[I:staff +1] ([cd][I:staff -1][c'd']) | %23
!pp! (5:4:5(b/^d'/b/g/f/) (5:4:5(B/^d/B/G/F/)[K:bass] (5:4:5(B,/^D/B,/G,/F,/) | %24
 (5:4:5(_B,/=D/B,/G,/E,/)[K:treble][I:staff +1] ([CD][I:staff -1][cd])[I:staff +1] ([cd][I:staff -1][c'd']) | %25
[K:bass]!p! !>!E2 !>!D2 !>!C2 |!>(! !>!E2 !>!D2 !>!F2!>)! | %27
[K:treble] z2 !arpeggio!!tenuto![c^gc']4 | z2 !tenuto![^c^g^c']4 | %29
!pp! (5:4:5(a/d'/a/f/d/)[I:staff +1] (A[I:staff -1]=c !arpeggio![=GBe]2) | %30
 (5:4:5(a/d'/a/f/d/)[I:staff +1] (A[I:staff -1]c!<(! eg)!<)! | (b2 a2 b2 |!pp! c'2) x2 x2 | %33
 c'2 x2 x2 |!p!!<(! (6:4:6(G/_E/_B,/G,/E/-B,/-) [B,E]2 (6:4:6(a/f/d/g/_e/!<)!c/) | %35
!p! (6:4:6(G/_E/_B,/!<(!G,/E/-B,/-) [B,E]2 (6:4:6(a/f/d/g/_e/!<)!c/) | (G2 ^F2 EF) | %37
!<(! (G2 ^f2 ef)!<)! | %38
!p! (6:4:6z/"_cresc." (G/e/g/e/G/) (6:4:6z/ (G/e/g/g/^c'/) (6:4:6(e'/d'/b/g/d/) z/ | %39
 (6:4:6z/ (G/e/g/e/G/) (6:4:6z/ (G/e/g/g/^c'/) (6:4:6(e'/d'/b/g/d/) z/ | %40
!f! (6:4:6e'/d'/b/g/d/ z/ (5:4:5e'/!>(!d'/b/g/d/ (6:4:6z/ (e/d/B/G/!>)!D/) |!p! (^D2 G2 D2- | %42
 ^D2 ^C2- (3CB,C) | (^D2 G2 D2- | ^D2 ^C2 B,C) |!p! (=c2 _B2 _AB) | (c2 _B2 _AB) | %47
!mf! ([cc']2 [_B_b]2 [_A_a][Bb]) |"_dim." ([cc']2 [_B_b]2 [_A_a][Bb] |!p!"_dim." [=Bd^f=b]6) || %50
!pp! !arpeggio![B^d=gb]6 | %51
[K:bass] (5:4:5(_B,/=D/B,/G,/E,/)[K:treble][I:staff +1] ([CD][I:staff -1][cd])[I:staff +1] ([cd][I:staff -1][c'd']) | %52
!pp! !arpeggio![=B^dgb]6 | %53
[K:bass] (5:4:5(_B,/=D/B,/G,/E,/)[K:treble][I:staff +1] ([CD][I:staff -1][cd])[I:staff +1] ([cd][I:staff -1][c'd']) | %54
[K:bass]!p! !>!E2 !>!D2 !>!C2 | !>!E2 !>!D2 !>!F2 |[K:treble]!pp! ^G2 !arpeggio!.[c^gc']4 | %57
 !>!^G2 .[^c^g^c']4 | (5:4:5(a/d'/a/f/d/)[I:staff +1] (A[I:staff -1]=c [GBe]2) | %59
 (5:4:5(a/d'/a/f/d/)[I:staff +1] (A[I:staff -1]c eg) | b2 a2 b2 | %61
 (5:4:5(g/b/g/e/B/) (5:4:5(g/b/g/e/B/) (5:4:5(g/b/g/e/B/) | %62
"_dim." (5:4:5(g/b/g/e/B/) (5:4:5(g/b/g/e/B/) (5:4:5(g/b/g/e/B/) |!pp! g2 g2 g2 | g2 g2 g2 | %65
!pp! g2 g2 ^c'2 | g2 b2 ^c'2 |!pp!!8va(! ^c'2 c'2 e'2 |!pp! ^c'2 c'2 e'2 |!>(! ^c'2!>)! c'2 e'2 | %70
 (5:4:5(e'/a'/e'/c'/a/)!pp! (5:4:5(e'/a'/e'/c'/a/) (5:4:5(e'/a'/e'/c'/a/) || %71
[M:4/4]!pp! (5:4:5(^d'/^g'/d'/^b/^g/) (5:4:5(d'/g'/d'/b/g/)!8va)! (5:4:5(^d/g/d/^B/^G/) (5:4:5(d/g/d/B/G/) || %72
[M:3/4]!pp! (5:4:5(^d/^g/d/=B/^G/) (5:4:5(d/g/d/B/G/) (5:4:5(d/g/d/B/G/) | %73
 (5:4:5(^d/^g/d/B/^G/) (3z ([^F,^G,][^FG]-) [FG]2 | %74
 (5:4:5(^d/^g/d/B/^G/) (5:4:5(d/g/d/B/G/) (5:4:5(d/g/d/B/G/) | %75
!p!!>(! ([B,=D]2!>)! [D^F]2)!p!!>(! ([B,D]2!>)! | [^C^F]2)!pp!!>(! ([B,D]2!>)! [CF]2) | %77
 (D2!<(! [A,D^F]4)!<)! |!p! (b2 a2 ^f2) |!p! (b2 a2 ^f2) |!pp! ([Bb]2 [Aa]2 [^Fd^f]2-) | %81
 [^Fd^f]2- [Fdf] z z2 ||!pp! z (.b2 .a2 .=f) |!p! !arpeggio!!tenuto![G,_B,DG]6 | %84
!pp! z (.b2 .a2 .f) |!pp! !arpeggio!!tenuto![G,_B,DG]6 |!p! (!>!G2 !>!F2 !>!E2) | %87
"_dim." (!>!G2 !>!F2 !>!F2) |!pp! F2 F2 _A2 | _A2 _d2 f2 |"_dim." !arpeggio![=d=fa=d']4 x2 | %91
 !arpeggio![dfad']4 x2 | ^d2 ^c2 ^A2 |!pp! z!>(! (.d'2 .c'2 .a) | [EGA]6!>)! | %95
!ppp! !arpeggio![EGA]6- | !arpeggio![EGA]2 z2 z2 |] %97
V:3
 x3 C [CD]2 [CD]- [CD]2 [CD]- [CD]2 | x3 [CD]- [CD]2 [CD]- [CD]2 [CD]- [CD]2 x3 | %2
 x3 [C-D] [CD]2 [C-D] [CD]2 [C-D] [CD]2 x3 | x3 [C-D] [CD]2 [C-D] [CD]2 [C-D] [CD]2 x3 | %4
 x3 [C-D] [CD]2 [C-D] [CD]2 [C-D] [CD]2 x5 | x3 [C-D] [CD]2 [C-D] [CD]2 [C-D] [CD]2 x3 | %6
 x3 [C-D] [CD]2 [C-D] [CD]2 [C-D] [CD]2 x4 | x3 [C-D] [CD]2 [C-D] [CD]2 [C-D] [CD]2 x6 | %8
 x3 [C-D] [CD]2 [C-D] [CD]2 [C-D] [CD]2 x5 | x3 [CG]- [CG]2 [CG]- [CG]2 [CG]- [CG]2 x4 | %10
 x3 E- E2 G- G2 G- G2 x3 | x15 | x15 | x14 | x27/2 | x15 | x15 | x15 | x15 | x373/30 | x62/5 || %21
[M:3/4] x4[K:bass] x2 | x2[K:treble] x4 | x4[K:bass] x2 | x2[K:treble] x4 | %25
[K:bass] (5:4:5(E/G/E/C/G,/) (5:4:5(D/F/D/_B,/F,/) (5:4:5(C/E/C/_A,/E,/) | %26
 (5:4:5(E/G/E/C/G,/) (5:4:5(D/F/D/_B,/F,/) (5:4:5(F/_A/F/C/_A,/) | %27
[K:treble] (5:4:5(^G/=B/G/E/!pp!B,/) x4 | (5:4:5(^G/B/G/E/B,/) x4 | x6 | x4 !arpeggio![GB]2 | %31
 (6:4:6b/g/^d/B/g/d/ (6:4:6a/f/^c/A/f/c/ (6:4:6b/g/d/B/g/d/ | %32
 (6:4:6c'/g/e/c/-g/-e/- [ceg]2 (6:4:6(G/E/C/G,/E/C/) | %33
 (6:4:6c'/g/e/c/-g/-e/- [ceg]2 (6:4:6(G/E/C/G,/E/B,/) | x6 | x6 | %36
 (6:4:6(G/D/_B,/G,/D/B,/) (6:4:6(^F/D/B,/G,/D/B,/) (6:4:6(^C/B,/G,/)(C/B,/G,/) | %37
 (6:4:6G/G,/_B,/D/G/_B/ (6:4:6^f/d/B/G/d/B/ (6:4:6^c/B/G/ c/B/G/ | x4 !arpeggio![dgb]2 | %39
 x4 !arpeggio![dgb]2 | !arpeggio![dgb]2 !arpeggio![dgb]2 [GB]2 | (3z [A,B,][AB] (3z [AB][ab] x2 | %42
 (=G,2 ^G,4) | (3z [A,B,][AB] (3z [AB][ab] x2 | !>!=G,6 | _D6 | _D6 | [_e_g]4 [=df]2 | %48
 [_e_g]4 [df]2 | x6 || x6 |[K:bass] x6[K:treble] | x6 |[K:bass] x6[K:treble] | %54
[K:bass] (5:4:5(E/G/E/C/G,/) (5:4:5(D/F/D/_B,/F,/) (5:4:5(C/E/C/_A,/E,/) | %55
 (5:4:5(E/G/E/C/G,/) (5:4:5(D/F/D/_B,/F,/) (5:4:5(F/_A/F/C/_A,/) | %56
[K:treble] (5:4:5(^G/=B/G/E/B,/) x4 | (5:4:5(^G/B/G/E/B,/) x4 | x6 | x4 [GB]2 | %60
 (6:4:6b/g/^d/B/g/d/ (6:4:6a/f/^c/A/f/c/ (6:4:6b/g/d/B/g/d/ | x6 | x6 | %63
 (5:4:5(g/b/g/e/B/) (5:4:5(g/b/g/e/B/) (5:4:5(g/b/g/e/B/) | %64
 (5:4:5(g/b/g/e/B/) (5:4:5(g/b/g/e/B/) (5:4:5(g/^a/g/e/^A/) | %65
 (5:4:5(g/b/g/e/B/) (5:4:5(g/e'/b/g/e/) (5:4:5(^c'/^f'/c'/^a/^f/) | %66
 (5:4:5(g/b/g/e/B/) (5:4:5(b/e'/b/g/e/) (5:4:5(^c'/^f'/c'/^a/^f/) | %67
!8va(! (5:4:5(^c'/^f'/c'/!<(!=a/^f/) (5:4:5(c'/^g'/c'/a/^g/) (5:4:5(e'/a'/e'/=c'/a/)!<)! | %68
 (5:4:5(^c'/^f'/c'/a/f/) (5:4:5(c'/!<(!^g'/c'/a/^g/) (5:4:5(e'/a'/e'/=c'/a/)!<)! | %69
 (5:4:5(^c'/^f'/c'/a/^f/) (5:4:5(c'/^g'/c'/a/^g/) (5:4:5(e'/a'/e'/=c'/a/) | x6 || %71
[M:4/4] x4!8va)! x4 ||[M:3/4] x6 | x6 | x6 | x6 | x6 | x6 | !arpeggio![Ac]6 | !arpeggio![G^c]6 | %80
 e4 x2 | x6 || !arpeggio![GB^dg]6 | =D4 E2 | !arpeggio![G=B^dg]6 | =D4 E2 | %86
 G/c/A/C/ F/c/A/C/ E/c/A/C/ | G/c/A/C/ F/c/A/C/ F/c/A/C/ | F/_d/_A/_D/ F/d/A/D/ A/f/d/F/ | %89
 _A/f/_d/F/ d/_a/f/A/ f/_d'/a/d/ | x6 | x6 | (3^d/B/^D/-D (3^c/^A/^C/-C (3A/^^F/^A,/-A, | %93
 [EG=A]6- | z (.D2 .C2 .A,) | G,6- | G,2 x4 |] %97
V:4
 x6 z6 | x6 (([_B,G]3 [A,^F]3 [^F,D]3 | x6 [G,E]6-)) [G,E]3 | x6 (([_B,G]3 [A,^F]3 [^F,D]3 | %4
[K:bass] x6 [G,E]6-)) [G,E]3 x2 | x6!pp!!<(! (([G,_B,]3 [^F,A,]3 [=F,_A,]3!<)! | %6
 x6 [E,^G,]6)) x4/3 x2/3 x2 | x6!pp! (B,3 A,3 E,3 x3 | x6 [A,,F,]6) z4/3 z2/3 x3 | %9
 x6 z4/3 z2/3[K:treble] (D3 E3 x2 | x6 G3 c3 e3) | x3 (2:3:2_B,_E(2:3:2_BB,(2:3:2Cc x3 | %12
 x3 (2:3:2_B,_E(2:3:2_BB,(2:3:2Dd x3 | x3 (2:3:2_B,_E(2:3:2_BE(2:3:2B,_E, x2 | %14
[K:bass] x3 (2:3:2z2/3 (^D, (2:3:2^G,^A,- (2:3:2A,^B,) x2 | x3 (^D3 ^C3 =C3) x3 | %16
 x3 (^D3 =D3 ^C3) x3 | x3 ([A,=C]3 [B,D]3 [CE]3) x3 | x3 ([A,C]3 [B,D]3 G,,3) x3 | %19
 x73/30 (2:3:2z2/3 z2/3 (2:3:2(^G,,[K:treble] [B,^C](2:3:2[B^c][^G^d]) x2 | %20
[K:bass] x73/30 (2:3:2z2/3 z2/3 (2:3:2(^G,,[K:treble] [B,^C]!<(!(2:3:5[B^c]B11/45!<)!^d11/45B11/45^G11/45) x2 || %21
[M:3/4] !>![=F=GB]6 |[K:bass]!pp! z2[K:treble] x4 | !>![FGB]6 |[K:bass]!pp! x2[K:treble] x4 | %25
[K:bass] (E,2 D,2 C,2) | (E,2 D,2 C,2) | z2!<(! !arpeggio!!>![^G,C]4!<)! | %28
 z2!<(! !arpeggio!!>![^G,^C]4!<)! | GA- (6:4:6C/D/!<(!F/D/C/G,/ x2!<)! | %30
 GA- (6:4:6C/D/F/D/C/G,/ x2 | (!arpeggio![B,^DG]2 [A,^CF]2 [B,DG]2) | z2 ([CEG]G, G,,2) | %33
 z2 ([CEG]G, G,,2) | (G,,C, G,C [_B,FA][C_EG]) | (G,,C, G,C [_B,FA][C_EG]) | z (G,,E,G,, E,2) | %37
 C,,G,,[K:treble] [D^F]2 EF | [^CEG]4 [DGB]2 | [^CEG]4 [DGB]2 | [GB]2 [GB]2 z2 | %41
[K:bass] z2 x2 z (B,, | (3E,,)(B,,E,,-) (3E,,(B,,E,,-) (3E,,(B,,E,,-) | B,,4 z (B,, | %44
 (3E,,)(B,,E,,-) (3E,,(B,,E,,-) (3E,,(B,,E,,) | (3(=G,_B,,_E,,) (3(_A,_B,,A, (3_DA,B,,) | %46
 (3(=G,_B,,_E,, (3_A,_B,,A, (3_DA,B,,) | (3z (_E,_A, (3C_E_G [=B,DF]2) | %48
 (3z (_E,_A, (3C_E_G [=B,DF]2) | [^G,D-^F]4 [^F,=B,D]2 || !arpeggio![=F,B,^D=G]6 | %51
 x2[K:treble] x4 |[K:bass] !arpeggio![F,=B,^DG]6 | x2[K:treble] x4 |[K:bass] (E,2 D,2 C,2) | %55
 (E,2 D,2 C,2) | z2!<(! [^G,C]4!<)! | z2!<(! [^G,^C]4!<)! | =GA- (6:4:6(C/D/F/D/C/G,/) x2 | %59
 GA- (6:4:6(C/D/F/D/C/G,/) x2 | ([B,^DG]2 [A,^CF]2 [B,DG]2) | (G,,E,G,C[K:treble]EG-) | %62
 (G2 E2 G2-) | (G2 E2 !>!!tenuto!.[A,^CEG]2-) |[K:bass] [A,^CEG]2[K:treble] (E2 G2-) | %65
 (G2 d2 ^c2) | (G2 d2 ^c2) | ^c4 (e^f | ^c4) (e^f | ^c4) e2 | %70
[K:bass]!pp! z2[K:treble] (.F,/.E/.A/.c/ .e) z || %71
[M:4/4][K:bass] z2 (.^D,/.^G,/.^B,/.^D/ !>!^F4-) || %72
[M:3/4]"^espress." ([^A,=B,^F]2 [^G,B,^E]2 [^E,B,^C]2 | [^F,B,^D]4 B,2) | %74
 ([^A,B,^F]2 [^G,B,^E]2 [^E,B,^C]2) | ^F,2 ^G,2 F,2 | =G,2 ^F,2 G,2 | [^F,B,]2 x4 | %78
 !arpeggio![^F,=C^D]6 | !arpeggio![A,,E,G,A,^C]6 | (E4 D2-) | D4 z2 || !arpeggio![=F,B,^D]6 | %83
 !arpeggio![C,,G,,E,]6 | !arpeggio![F,=B,^D]6 | !arpeggio![C,,G,,E,]6 | [F,,,C,,]4 z2 | F,4 D,2 | %88
 (_A,4 _D2- | _D2 F2 _A2) | !arpeggio![G,C=DF=A]4 (6:4:6(E,/B,/E/[I:staff -1]G/B/e/) | %91
[I:staff +1] !arpeggio![G,CDFA]4 (6:4:6(E,/B,/E/[I:staff -1]G/B/e/) | %92
[I:staff +1] z !tenuto!.[^G,B,^G] z !tenuto!.[^F,^A,^F] z !tenuto!.[^D,^^F,^D] | [C,,=G,,]6- | %94
 [C,,G,,]6 | z2 !tenuto!.G,,2 !arpeggio![C,,,C,,]2- | [C,,,C,,]2 z2 z2 |] %97
V:5
 x12 | x15 | x15 | x15 |[K:bass] x9 z4/3!pp! z2/3 [C,,G,,]6 | x15 | x8 z4/3!p! z2/3 ^G,,6 | %7
 x9 [A,,-E,]6 A,,3 | x8 !tenuto!D,,6 !tenuto![G,,,D,,]3 | x8[K:treble] !tenuto!C,,,6 x4/3 x2/3 | %10
 x15 | x6 (_E,6 G,3) | x6 (_E,6 [G,_B,]3) | x6 _E,6 z4/3 z2/3 | %14
[K:bass] x11/2 [^G,,,^G,,]6 z4/3 z2/3 | x6 ([B,,^F,A,]6 [=D,A,]3) | x6 [B,,^F,A,]6- [B,,F,A,]3 | %17
 x6 ([G,,D,]3 G,3 D,3) | x6 [G,,D,]3 G,3 G,,3 | x133/30 ^C,,6[K:treble] x4/3 x2/3 | %20
[K:bass] x22/5 ^C,,6[K:treble] x4/3 x2/3 ||[M:3/4] x6 |[K:bass] [C,,G,,]6[K:treble] | x6 | %24
[K:bass] [C,,G,,]6[K:treble] |[K:bass] _A,,6 | (_A,,4 F,,2) | E,,6 | E,,6 | [=G,=CD=F]4 [E,B,E]2 | %30
 [G,CDF]4 [E,B,E]2 | F,6 | [C,,G,,]6 | [C,,G,,]6 | C,,6 | C,,6 | (C,,4 ^F,,2) | %37
 C,,2[K:treble] _B,4 | (=B,2 A,2 G,A,) | (B,2 A,2 G,A,) | (B,D E2 DB,) |[K:bass] [E,,B,,]6 | x6 | %43
 E,,6 | x6 | x6 | x6 | [_A,,,_A,,]6 | [_A,,,_A,,]6 | z2 !arpeggio![=E,,=B,,]2- [E,,B,,] z || x6 | %51
 [C,,G,,]6[K:treble] |[K:bass] x6 | [C,,G,,]6[K:treble] |[K:bass] _A,,6 | (_A,,4 F,,2 | %56
 [E,,B,,]6) | [E,,A,,]6 | [=G,=CDF]4 [E,B,E]2 | [G,CDF]4 [E,B,E]2 | F,6 | C,,6[K:treble] | x6 | %63
 x6 |[K:bass] [A,,,E,,]4[K:treble] z2 | ([DE]2 !arpeggio![B,EG]2 !arpeggio![^A,EG]2) | %66
 ([DE]2 !arpeggio![B,EG]2 !arpeggio![^A,EG]2) | !arpeggio![=A,^D^F]4 !arpeggio![A,EA=c]2 | %68
 !arpeggio![A,^D^F]4 !arpeggio![A,EA=c]2 | !arpeggio![A,^D^F]4 !arpeggio![A,EA=c]2 | %70
[K:bass] [F,,,C,,]6[K:treble] ||[M:4/4][K:bass] [^G,,,^D,,]6 z2 ||[M:3/4] x6 | z2 [B,,,^F,,]4 | %74
 x6 | (3(=E,,B,,E,, (3B,,E,,B,, (3E,,B,,E,, | (3A,,,E,,A,,,) (3(E,,B,,E,, (3A,,,E,,A,,,) | %77
 (3(D,,A,,D,, (3A,,D,^F,) (3(A,[I:staff -1]DF) | x6 | x6 |[I:staff +1] !arpeggio![D,^F,A,]6 | %81
 (B,2 A,2 ^F,2) || x6 | x6 | x6 | x6 | x6 | x6 | _D,6 | x6 | x6 | x6 | x6 | x6 | x6 | x6 | x6 |] %97
V:6
 x12 | x15 | x15 | x15 |[K:bass] x17 | x15 | x16 | x18 | x17 | x8[K:treble] x8 | x15 | x15 | x15 | %13
 x14 |[K:bass] x27/2 | x15 | x15 | x15 | x15 | x89/15[K:treble] x13/2 | %20
[K:bass] x89/15[K:treble] x97/15 ||[M:3/4] x6 |[K:bass] x2[K:treble] x4 | x6 | %24
[K:bass] x2[K:treble] x4 |[K:bass] x6 | x6 | z2 (E2 F2) | z2 (E2 ^F2) | x6 | x6 | x6 | x6 | x6 | %34
 x6 | x6 | x6 | x4[K:treble] ^C2 | x6 | x6 | x6 |[K:bass] x6 | x6 | x6 | x6 | x6 | x6 | x6 | x6 | %49
 x6 || x6 | x2[K:treble] x4 |[K:bass] x6 | x2[K:treble] x4 |[K:bass] x6 | x6 | z2 (E2 F2) | %57
 z2 (E2 ^F2) | x6 | x6 | x6 | x4[K:treble] x2 | x6 | x6 |[K:bass] x2[K:treble] x4 | x6 | x6 | x6 | %68
 x6 | x6 |[K:bass] x2[K:treble] x4 ||[M:4/4][K:bass] x8 ||[M:3/4] x6 | x6 | x6 | x6 | x6 | x6 | %78
 x6 | x6 | [D,,A,,]4 x2 | x6 || x6 | x6 | x6 | x6 | x6 | x6 | x6 | x6 | x6 | x6 | x6 | x6 | x6 | %95
 x6 | x6 |] %97
V:7
 x12 | x15 | x15 | x15 | x17 | x15 | x16 | x18 | x17 | x16 | x15 | x15 | x15 | x14 | x27/2 | x15 | %16
 x15 | x15 | x15 | x373/30 | x62/5 ||[M:3/4] x4[K:bass] x2 | x2[K:treble] x4 | x4[K:bass] x2 | %24
 x2[K:treble] x4 |[K:bass] x6 | x6 |[K:treble] x6 | x6 | x6 | x6 | x6 | x6 | x6 | x6 | x6 | x6 | %37
 x6 | x6 | x6 | x6 | x6 | x6 | x6 | x6 | _E2 _F2 =F2 | _E2 _F2 =F2 | x6 | x6 | x6 || x6 | %51
[K:bass] x2[K:treble] x4 | x6 |[K:bass] x2[K:treble] x4 |[K:bass] x6 | x6 |[K:treble] x6 | x6 | %58
 x6 | x6 | x6 | x6 | x6 | x6 | x6 | x6 | x6 |!8va(! x6 | x6 | x6 | x6 ||[M:4/4] x4!8va)! x4 || %72
[M:3/4] x6 | x6 | x6 | x6 | x6 | x6 | x6 | x6 | x6 | x6 || x6 | x6 | x6 | x6 | x6 | x6 | x6 | x6 | %90
 x6 | x6 | x6 | x6 | x6 | x6 | x6 |] %97

